dist/images/icn/illustrator.svg

<svg width="18" height="18" viewBox="0 0 18 18" xmlns="http://www.w3.org/2000/svg"><title>illustrator</title><g id="Symbols" fill="none" fill-rule="evenodd"><g id="Illustrator" transform="translate(1 1)"><circle id="Oval" stroke="#FFF" cx="8" cy="8" r="8"/><path d="M5.92 9.424L5.376 11.2H4.192l2-6.256h1.456L9.696 11.2H8.464l-.56-1.776H5.92zm1.792-.864l-.496-1.536c-.128-.384-.224-.8-.32-1.168H6.88c-.096.368-.192.8-.304 1.168l-.48 1.536h1.616zM11.36 5.424c0 .336-.256.608-.656.608-.384 0-.624-.272-.624-.608 0-.352.256-.624.64-.624s.624.272.64.624zM10.144 11.2V6.688h1.152V11.2h-1.152z" id="Shape" fill="#FFF"/></g></g></svg>

<?xml version="1.0" encoding="UTF-8"?>
<svg width="18px" height="18px" viewBox="0 0 18 18" version="1.1" xmlns="http://www.w3.org/2000/svg" xmlns:xlink="http://www.w3.org/1999/xlink">
    <!-- Generator: Sketch 41.1 (35376) - http://www.bohemiancoding.com/sketch -->
    <title>illustrator</title>
    <desc>Created with Sketch.</desc>
    <defs></defs>
    <g id="Symbols" stroke="none" stroke-width="1" fill="none" fill-rule="evenodd">
        <g id="Illustrator" transform="translate(1.000000, 1.000000)">
            <circle id="Oval" stroke="#FFFFFF" cx="8" cy="8" r="8"></circle>
            <path d="M5.92,9.424 L5.376,11.2 L4.192,11.2 L6.192,4.944 L7.648,4.944 L9.696,11.2 L8.464,11.2 L7.904,9.424 L5.92,9.424 Z M7.712,8.56 L7.216,7.024 C7.088,6.64 6.992,6.224 6.896,5.856 L6.88,5.856 C6.784,6.224 6.688,6.656 6.576,7.024 L6.096,8.56 L7.712,8.56 Z" id="Shape" fill="#FFFFFF"></path>
            <path d="M11.36,5.424 C11.36,5.76 11.104,6.032 10.704,6.032 C10.32,6.032 10.08,5.76 10.08,5.424 C10.08,5.072 10.336,4.8 10.72,4.8 C11.104,4.8 11.344,5.072 11.36,5.424 Z M10.144,11.2 L10.144,6.688 L11.296,6.688 L11.296,11.2 L10.144,11.2 L10.144,11.2 Z" id="Shape" fill="#FFFFFF"></path>
        </g>
    </g>
</svg>
